material/.icons/material/arrow-split-horizontal.svg

<svg xmlns="http://www.w3.org/2000/svg" viewBox="0 0 24 24"><path d="M8 18h3v-3H2v-2h20v2h-9v3h3l-4 4-4-4m4-16L8 6h3v3H2v2h20V9h-9V6h3l-4-4z"/></svg>

<?xml version="1.0" encoding="UTF-8"?><!DOCTYPE svg PUBLIC "-//W3C//DTD SVG 1.1//EN" "http://www.w3.org/Graphics/SVG/1.1/DTD/svg11.dtd"><svg xmlns="http://www.w3.org/2000/svg" xmlns:xlink="http://www.w3.org/1999/xlink" version="1.1" id="mdi-arrow-split-horizontal" width="24" height="24" viewBox="0 0 24 24"><path d="M8,18H11V15H2V13H22V15H13V18H16L12,22L8,18M12,2L8,6H11V9H2V11H22V9H13V6H16L12,2Z" /></svg>
